svg/emoji_u1f3a5.svg

<?xml version="1.0" encoding="UTF-8"?>
<svg width="128" height="128" enable-background="new 0 0 128 128" xmlns="http://www.w3.org/2000/svg"><radialGradient id="i" cx="9.25" cy="66.25" r="58.443" gradientTransform="matrix(4.4999e-11 1 -.8128 3.6573e-11 63.095 57)" gradientUnits="userSpaceOnUse"><stop stop-color="#616161" offset="0"/><stop stop-color="#212121" offset="1"/></radialGradient><path d="M32,80L20,64h-8c-4.42,0-8,3.58-8,8v44c0,4.42,3.58,8,8,8h8l12-16h20V80H32z" fill="url(#i)"/><rect x="16" y="64" width="3" height="60" fill="#424242"/><linearGradient id="h" x1="112" x2="112" y1="73.234" y2="90.332" gradientUnits="userSpaceOnUse"><stop stop-color="#616161" offset="0"/><stop stop-color="#212121" offset="1"/></linearGradient><path d="m121.11 73.45-5.11 2.55h-16v12h16l5.11 2.55c1.33 0.66 2.89-0.3 2.89-1.79v-13.52c0-1.49-1.56-2.46-2.89-1.79z" fill="url(#h)"/><radialGradient id="g" cx="78.25" cy="47.083" r="24.002" gradientUnits="userSpaceOnUse"><stop stop-color="#616161" offset="0"/><stop stop-color="#212121" offset="1"/></radialGradient><rect x="64" y="48" width="28" height="28" fill="url(#g)"/><g opacity=".2"><rect x="31.5" y="80" width="3" height="28" fill="#424242"/></g><g opacity=".2"><path d="m18.5 67 12 16h18.5v22h-18.5l-12 16h-6.5c-2.76 0-5-2.24-5-5v-44c0-2.76 2.24-5 5-5h6.5m1.5-3h-8c-4.42 0-8 3.58-8 8v44c0 4.42 3.58 8 8 8h8l12-16h20v-28h-20l-12-16z" fill="#eee"/></g><g fill="#eee" opacity=".2"><path d="m121 76.85v10.29l-3.66-1.83-0.63-0.31h-13.71v-6h13.71l0.63-0.32 3.66-1.83m1-3.62c-0.3 0-0.6 0.07-0.89 0.21l-5.11 2.56h-16v12h16l5.11 2.55c0.29 0.15 0.6 0.21 0.89 0.21 1.05 0 2-0.84 2-2v-13.52c0-1.16-0.95-2.01-2-2.01z"/><path d="m89 51v22h-22v-22h22m3-3h-28v28h28v-28z"/></g><radialGradient id="f" cx="47.833" cy="2.8333" r="65.133" gradientUnits="userSpaceOnUse"><stop stop-color="#757575" offset="0"/><stop stop-color="#424242" offset="1"/></radialGradient><circle cx="48" cy="36" r="32" fill="url(#f)"/><radialGradient id="e" cx="101.83" cy="23.333" r="44.59" gradientUnits="userSpaceOnUse"><stop stop-color="#757575" offset="0"/><stop stop-color="#424242" offset="1"/></radialGradient><circle cx="102" cy="46" r="22" fill="url(#e)"/><radialGradient id="d" cx="77.833" cy="68.167" r="58.648" gradientUnits="userSpaceOnUse"><stop stop-color="#616161" offset="0"/><stop stop-color="#212121" offset="1"/></radialGradient><path d="m104 120h-52c-4.42 0-8-3.58-8-8v-36c0-4.42 3.58-8 8-8h52c4.42 0 8 3.58 8 8v36c0 4.42-3.58 8-8 8z" fill="url(#d)"/><g fill="#424242" opacity=".2"><path d="m54 94c1.1 0 2 0.9 2 2s-0.9 2-2 2-2-0.9-2-2 0.9-2 2-2m0-2c-2.21 0-4 1.79-4 4s1.79 4 4 4 4-1.79 4-4-1.79-4-4-4z"/><path d="m54 102c1.1 0 2 0.9 2 2s-0.9 2-2 2-2-0.9-2-2 0.9-2 2-2m0-2c-2.21 0-4 1.79-4 4s1.79 4 4 4 4-1.79 4-4-1.79-4-4-4z"/></g><g opacity=".2"><path d="m104 71c2.76 0 5 2.24 5 5v36c0 2.76-2.24 5-5 5h-52c-2.76 0-5-2.24-5-5v-36c0-2.76 2.24-5 5-5h52m0-3h-52c-4.42 0-8 3.58-8 8v36c0 4.42 3.58 8 8 8h52c4.42 0 8-3.58 8-8v-36c0-4.42-3.58-8-8-8z" fill="#eee"/></g><g opacity=".2"><path d="m48 7c15.99 0 29 13.01 29 29s-13.01 29-29 29-29-13.01-29-29 13.01-29 29-29m0-3c-17.67 0-32 14.33-32 32s14.33 32 32 32 32-14.33 32-32-14.33-32-32-32z" fill="#eee"/></g><g opacity=".2"><path d="m102 27c10.48 0 19 8.52 19 19s-8.52 19-19 19-19-8.52-19-19 8.52-19 19-19m0-3c-12.15 0-22 9.85-22 22s9.85 22 22 22 22-9.85 22-22-9.85-22-22-22z" fill="#eee"/></g><linearGradient id="c" x1="80" x2="80" y1="90.172" y2="113.73" gradientUnits="userSpaceOnUse"><stop stop-color="#616161" offset="0"/><stop stop-color="#212121" offset="1"/></linearGradient><path d="m64 108.5c-2.48 0-4.5-2.02-4.5-4.5v-8c0-2.48 2.02-4.5 4.5-4.5h32c2.48 0 4.5 2.02 4.5 4.5v8c0 2.48-2.02 4.5-4.5 4.5h-32z" fill="url(#c)"/><path d="m96 92c2.21 0 4 1.79 4 4v8c0 2.21-1.79 4-4 4h-32c-2.21 0-4-1.79-4-4v-8c0-2.21 1.79-4 4-4h32m0-1h-32c-2.76 0-5 2.24-5 5v8c0 2.76 2.24 5 5 5h32c2.76 0 5-2.24 5-5v-8c0-2.76-2.24-5-5-5z" fill="#424242"/><circle cx="48" cy="36" r="24" fill="none" stroke="#616161" stroke-miterlimit="10" stroke-width="2"/><circle cx="102" cy="46" r="14" fill="none" stroke="#616161" stroke-miterlimit="10" stroke-width="2"/><radialGradient id="b" cx="47.833" cy="27.167" r="16.602" gradientUnits="userSpaceOnUse"><stop stop-color="#9E9E9E" offset="0"/><stop stop-color="#616161" offset="1"/></radialGradient><circle cx="48" cy="36" r="8" fill="url(#b)" stroke="#757575" stroke-miterlimit="10" stroke-width="2"/><radialGradient id="a" cx="102" cy="37.333" r="16.334" gradientUnits="userSpaceOnUse"><stop stop-color="#9E9E9E" offset="0"/><stop stop-color="#616161" offset="1"/></radialGradient><circle cx="102" cy="46" r="8" fill="url(#a)" stroke="#757575" stroke-miterlimit="10" stroke-width="2"/><linearGradient id="k" x1="54" x2="54" y1="93.75" y2="97.768" gradientUnits="userSpaceOnUse"><stop stop-color="#FF1744" offset="0"/><stop stop-color="#D50000" offset="1"/></linearGradient><circle cx="54" cy="96" r="2" fill="url(#k)"/><linearGradient id="j" x1="54" x2="54" y1="101.75" y2="105.77" gradientUnits="userSpaceOnUse"><stop stop-color="#76FF03" offset="0"/><stop stop-color="#64DD17" offset="1"/></linearGradient><circle cx="54" cy="104" r="2" fill="url(#j)"/></svg>

<svg width="128" height="128" style="enable-background:new 0 0 128 128;" xmlns="http://www.w3.org/2000/svg" xmlns:xlink="http://www.w3.org/1999/xlink">
  <radialGradient id="SVGID_1_" cx="9.25" cy="66.25" gradientTransform="matrix(4.499940e-11 1 -0.8128 3.657339e-11 63.0949 57)" gradientUnits="userSpaceOnUse" r="58.4433">
    <stop offset="0" style="stop-color:#616161"/>
    <stop offset="1" style="stop-color:#212121"/>
  </radialGradient>
  <path d="M32,80L20,64h-8c-4.42,0-8,3.58-8,8v44c0,4.42,3.58,8,8,8h8l12-16h20V80H32z" style="fill:url(#SVGID_1_);"/>
  <rect height="60" style="fill:#424242;" width="3" x="16" y="64"/>
  <linearGradient id="SVGID_2_" gradientUnits="userSpaceOnUse" x1="112" x2="112" y1="73.2335" y2="90.3316">
    <stop offset="0" style="stop-color:#616161"/>
    <stop offset="1" style="stop-color:#212121"/>
  </linearGradient>
  <path d="M121.11,73.45L116,76h-16v12h16l5.11,2.55c1.33,0.66,2.89-0.3,2.89-1.79V75.24 C124,73.75,122.44,72.78,121.11,73.45z" style="fill:url(#SVGID_2_);"/>
  <radialGradient id="SVGID_3_" cx="78.25" cy="47.0833" gradientUnits="userSpaceOnUse" r="24.0023">
    <stop offset="0" style="stop-color:#616161"/>
    <stop offset="1" style="stop-color:#212121"/>
  </radialGradient>
  <rect height="28" style="fill:url(#SVGID_3_);" width="28" x="64" y="48"/>
  <g style="opacity:0.2;">
    <rect height="28" style="fill:#424242;" width="3" x="31.5" y="80"/>
  </g>
  <g style="opacity:0.2;">
    <path d="M18.5,67l11.1,14.8l0.9,1.2H32h17v22H32h-1.5l-0.9,1.2L18.5,121H12c-2.76,0-5-2.24-5-5V72 c0-2.76,2.24-5,5-5H18.5 M20,64h-8c-4.42,0-8,3.58-8,8v44c0,4.42,3.58,8,8,8h8l12-16h20V80H32L20,64L20,64z" style="fill:#EEEEEE;"/>
  </g>
  <g style="opacity:0.2;">
    <path d="M121,76.85v10.29l-3.66-1.83L116.71,85H116h-13v-6h13h0.71l0.63-0.32L121,76.85 M122,73.23 c-0.3,0-0.6,0.07-0.89,0.21L116,76h-16v12h16l5.11,2.55c0.29,0.15,0.6,0.21,0.89,0.21c1.05,0,2-0.84,2-2V75.24 C124,74.08,123.05,73.23,122,73.23L122,73.23z" style="fill:#EEEEEE;"/>
    <path d="M89,51v22H67V51H89 M92,48H64v28h28V48L92,48z" style="fill:#EEEEEE;"/>
  </g>
  <radialGradient id="SVGID_4_" cx="47.8333" cy="2.8333" gradientUnits="userSpaceOnUse" r="65.1334">
    <stop offset="0" style="stop-color:#757575"/>
    <stop offset="1" style="stop-color:#424242"/>
  </radialGradient>
  <circle cx="48" cy="36" r="32" style="fill:url(#SVGID_4_);"/>
  <radialGradient id="SVGID_5_" cx="101.8333" cy="23.3333" gradientUnits="userSpaceOnUse" r="44.5901">
    <stop offset="0" style="stop-color:#757575"/>
    <stop offset="1" style="stop-color:#424242"/>
  </radialGradient>
  <circle cx="102" cy="46" r="22" style="fill:url(#SVGID_5_);"/>
  <radialGradient id="SVGID_6_" cx="77.8333" cy="68.1667" gradientUnits="userSpaceOnUse" r="58.6482">
    <stop offset="0" style="stop-color:#616161"/>
    <stop offset="1" style="stop-color:#212121"/>
  </radialGradient>
  <path d="M104,120H52c-4.42,0-8-3.58-8-8V76c0-4.42,3.58-8,8-8h52c4.42,0,8,3.58,8,8v36 C112,116.42,108.42,120,104,120z" style="fill:url(#SVGID_6_);"/>
  <g style="opacity:0.2;">
    <path d="M54,94c1.1,0,2,0.9,2,2s-0.9,2-2,2s-2-0.9-2-2S52.9,94,54,94 M54,92c-2.21,0-4,1.79-4,4s1.79,4,4,4 s4-1.79,4-4S56.21,92,54,92L54,92z" style="fill:#424242;"/>
    <path d="M54,102c1.1,0,2,0.9,2,2s-0.9,2-2,2s-2-0.9-2-2S52.9,102,54,102 M54,100c-2.21,0-4,1.79-4,4 s1.79,4,4,4s4-1.79,4-4S56.21,100,54,100L54,100z" style="fill:#424242;"/>
  </g>
  <g style="opacity:0.2;">
    <path d="M104,71c2.76,0,5,2.24,5,5v36c0,2.76-2.24,5-5,5H52c-2.76,0-5-2.24-5-5V76c0-2.76,2.24-5,5-5H104 M104,68H52c-4.42,0-8,3.58-8,8v36c0,4.42,3.58,8,8,8h52c4.42,0,8-3.58,8-8V76C112,71.58,108.42,68,104,68L104,68z" style="fill:#EEEEEE;"/>
  </g>
  <g style="opacity:0.2;">
    <path d="M48,7c15.99,0,29,13.01,29,29S63.99,65,48,65S19,51.99,19,36S32.01,7,48,7 M48,4 C30.33,4,16,18.33,16,36s14.33,32,32,32s32-14.33,32-32S65.67,4,48,4L48,4z" style="fill:#EEEEEE;"/>
  </g>
  <g style="opacity:0.2;">
    <path d="M102,27c10.48,0,19,8.52,19,19s-8.52,19-19,19s-19-8.52-19-19S91.52,27,102,27 M102,24 c-12.15,0-22,9.85-22,22s9.85,22,22,22s22-9.85,22-22S114.15,24,102,24L102,24z" style="fill:#EEEEEE;"/>
  </g>
  <g>
    <linearGradient id="SVGID_7_" gradientUnits="userSpaceOnUse" x1="80" x2="80" y1="90.1719" y2="113.7337">
      <stop offset="0" style="stop-color:#616161"/>
      <stop offset="1" style="stop-color:#212121"/>
    </linearGradient>
    <path d="M64,108.5c-2.48,0-4.5-2.02-4.5-4.5v-8c0-2.48,2.02-4.5,4.5-4.5h32c2.48,0,4.5,2.02,4.5,4.5 v8c0,2.48-2.02,4.5-4.5,4.5H64z" style="fill:url(#SVGID_7_);"/>
    <path d="M96,92c2.21,0,4,1.79,4,4v8c0,2.21-1.79,4-4,4H64c-2.21,0-4-1.79-4-4v-8c0-2.21,1.79-4,4-4H96 M96,91H64c-2.76,0-5,2.24-5,5v8c0,2.76,2.24,5,5,5h32c2.76,0,5-2.24,5-5v-8C101,93.24,98.76,91,96,91L96,91z" style="fill:#424242;"/>
  </g>
  <circle cx="48" cy="36" r="24" style="fill:none;stroke:#616161;stroke-width:2;stroke-miterlimit:10;"/>
  <circle cx="102" cy="46" r="14" style="fill:none;stroke:#616161;stroke-width:2;stroke-miterlimit:10;"/>
  <radialGradient id="SVGID_8_" cx="47.8333" cy="27.1667" gradientUnits="userSpaceOnUse" r="16.6015">
    <stop offset="0" style="stop-color:#9E9E9E"/>
    <stop offset="1" style="stop-color:#616161"/>
  </radialGradient>
  <circle cx="48" cy="36" r="8" style="fill:url(#SVGID_8_);stroke:#757575;stroke-width:2;stroke-miterlimit:10;"/>
  <radialGradient id="SVGID_9_" cx="102" cy="37.3333" gradientUnits="userSpaceOnUse" r="16.3342">
    <stop offset="0" style="stop-color:#9E9E9E"/>
    <stop offset="1" style="stop-color:#616161"/>
  </radialGradient>
  <circle cx="102" cy="46" r="8" style="fill:url(#SVGID_9_);stroke:#757575;stroke-width:2;stroke-miterlimit:10;"/>
  <g>
    <linearGradient id="SVGID_10_" gradientUnits="userSpaceOnUse" x1="54" x2="54" y1="93.75" y2="97.7675">
      <stop offset="0" style="stop-color:#FF1744"/>
      <stop offset="1" style="stop-color:#D50000"/>
    </linearGradient>
    <circle cx="54" cy="96" r="2" style="fill:url(#SVGID_10_);"/>
    <linearGradient id="SVGID_11_" gradientUnits="userSpaceOnUse" x1="54" x2="54" y1="101.75" y2="105.7675">
      <stop offset="0" style="stop-color:#76FF03"/>
      <stop offset="1" style="stop-color:#64DD17"/>
    </linearGradient>
    <circle cx="54" cy="104" r="2" style="fill:url(#SVGID_11_);"/>
  </g>
</svg>
